X: 4116
T: The LOWLANDS OF SCOTLAND
R: Reel.
%R: reel
B: James Kerr "Merry Melodies" v.4 p.14 #116
Z: 2016 John Chambers <jc:trillian.mit.edu>
M: C|
L: 1/8
K: Em
|:\
G3A (BE)TE2 | BdcA (BE)TE2 |\
G2(GA) BABd |[1 egfa gedB :|[2 egfd e2(df) |]
|:\
g2(fg) edBd | d2(ed) Bdef |\
[1 g2(fg) edBd | egfd e2(ef) :|\
[2 gaba gfed | egfa gedB |]

%%sep 1 1 500
%%sep 1 1 500

